packages/heroicons/src/prism/barcode.svg

<!-- Generated by IcoMoon.io -->
<svg version="1.1" xmlns="http://www.w3.org/2000/svg" width="16" height="16" viewBox="0 0 16 16">
<title>barcode</title>
<path fill="#4a4a4a" d="M0 3h2v10h-2zM3 3h1v10h-1zM5 3h1v10h-1zM8 3h1v10h-1zM12 3h1v10h-1zM15 3h1v10h-1zM10 3h0.5v10h-0.5zM7 3h0.5v10h-0.5zM13.5 3h0.5v10h-0.5z"></path>
</svg>

<svg xmlns="http://www.w3.org/2000/svg" aria-hidden="true" fill="currentColor" viewBox="0 0 16 16">
  <path d="M0 3h2v10H0zm3 0h1v10H3zm2 0h1v10H5zm3 0h1v10H8zm4 0h1v10h-1zm3 0h1v10h-1zm-5 0h.5v10H10zM7 3h.5v10H7zm6.5 0h.5v10h-.5z"/>
</svg>
